works/GoSurf/app/img/menu4.svg

<svg width="25" height="52" viewBox="0 0 25 52" fill="none" xmlns="http://www.w3.org/2000/svg">
<g filter="url(#filter0_d)">
<path fill-rule="evenodd" clip-rule="evenodd" d="M5 20.5831C5 7.50231 10.4217 0.445014 12.6388 0.444458C14.8563 0.445014 20.2777 7.50186 20.2777 20.5831C20.2777 33.8 15.5346 42.7601 15.3333 43.1351L15.1371 43.4997H10.1406L9.94444 43.1351C9.74311 42.76 5 33.8 5 20.5831ZM11.9447 2.28826V2.28819L11.9448 2.28815L11.9447 2.28826ZM11.9447 2.28826V24.0557H13.3336V2.28819C15.1113 3.87499 18.8891 9.64775 18.8891 20.5833C18.8891 24.2326 18.5054 27.5624 17.9585 30.4704C17.1547 29.3263 15.6773 27.769 12.9848 26.2308C6.43809 22.4895 6.51764 17.3521 6.52298 17.1353H6.52124C7.20353 8.41861 10.3648 3.69996 11.9447 2.28826ZM6.5248 24.2243C6.46577 23.4014 6.43105 22.5577 6.41195 21.6983C7.40505 23.5437 9.16716 25.6495 12.2953 27.4375C16.7407 29.9785 17.5018 32.4919 17.5209 32.5551L17.5211 32.5557C17.1808 34.0419 16.8076 35.3908 16.4343 36.5783C15.8492 35.5419 14.818 34.2676 12.9968 33.1825C7.51236 29.9169 6.64613 25.1789 6.5248 24.2243ZM13.3335 42.1113H14.2936L14.2934 42.111C14.5694 41.5415 15.1284 40.3228 15.7639 38.5693C15.6284 37.9912 14.9792 35.979 12.2847 34.3749C9.83516 32.9149 8.22404 31.1771 7.15982 29.5486C8.29698 36.2104 10.3595 40.8231 10.9845 42.1113H11.9446V37.25H13.3335V42.1113Z" fill="white"/>
<path d="M12.6388 0.444458L12.6389 0.319458L12.6388 0.319458L12.6388 0.444458ZM15.3333 43.1351L15.4433 43.1944L15.4434 43.1943L15.3333 43.1351ZM15.1371 43.4997V43.6247H15.2118L15.2471 43.5589L15.1371 43.4997ZM10.1406 43.4997L10.0306 43.5589L10.0659 43.6247H10.1406V43.4997ZM9.94444 43.1351L9.83431 43.1942L9.83437 43.1944L9.94444 43.1351ZM11.9447 2.28819L11.9044 2.16986L11.8197 2.19869V2.28819H11.9447ZM11.9448 2.28815L12.0281 2.38137L11.9045 2.16981L11.9448 2.28815ZM11.9447 24.0557H11.8197V24.1807H11.9447V24.0557ZM13.3336 24.0557V24.1807H13.4586V24.0557H13.3336ZM13.3336 2.28819L13.4168 2.19494L13.2086 2.00907V2.28819H13.3336ZM17.9585 30.4704L17.8563 30.5423L18.0266 30.7847L18.0814 30.4935L17.9585 30.4704ZM12.9848 26.2308L12.9227 26.3393L12.9227 26.3394L12.9848 26.2308ZM6.52298 17.1353L6.64794 17.1383L6.65109 17.0103H6.52298V17.1353ZM6.52124 17.1353L6.39662 17.1255L6.38608 17.2603H6.52124V17.1353ZM6.41195 21.6983L6.52203 21.6391L6.28698 21.7011L6.41195 21.6983ZM6.5248 24.2243L6.39993 24.2332L6.4008 24.24L6.5248 24.2243ZM12.2953 27.4375L12.2333 27.546H12.2333L12.2953 27.4375ZM17.5209 32.5551L17.4013 32.5914L17.4013 32.5915L17.5209 32.5551ZM17.5211 32.5557L17.643 32.5836L17.6504 32.5512L17.6407 32.5194L17.5211 32.5557ZM16.4343 36.5783L16.3255 36.6398L16.4671 36.8908L16.5536 36.6158L16.4343 36.5783ZM12.9968 33.1825L13.0608 33.0751L13.0608 33.0751L12.9968 33.1825ZM14.2936 42.1113V42.2363H14.5094L14.402 42.0491L14.2936 42.1113ZM13.3335 42.1113H13.2085V42.2363H13.3335V42.1113ZM14.2934 42.111L14.1809 42.0565L14.1521 42.1159L14.185 42.1732L14.2934 42.111ZM15.7639 38.5693L15.8814 38.6119L15.894 38.577L15.8856 38.5408L15.7639 38.5693ZM12.2847 34.3749L12.2207 34.4822L12.2208 34.4823L12.2847 34.3749ZM7.15982 29.5486L7.26446 29.4803L7.0366 29.5697L7.15982 29.5486ZM10.9845 42.1113L10.872 42.1659L10.9062 42.2363H10.9845V42.1113ZM11.9446 42.1113V42.2363H12.0696V42.1113H11.9446ZM11.9446 37.25V37.125H11.8196V37.25H11.9446ZM13.3335 37.25H13.4585V37.125H13.3335V37.25ZM12.6388 0.319458C12.3302 0.319535 11.9803 0.441556 11.6092 0.66655C11.2368 0.892417 10.8346 1.22719 10.4191 1.66593C9.58816 2.54352 8.69578 3.84608 7.8753 5.55458C6.23389 8.97248 4.875 14.0257 4.875 20.5831H5.125C5.125 14.0597 6.47694 9.04389 8.10066 5.66281C8.91274 3.97181 9.79149 2.69239 10.6007 1.83781C11.0053 1.41046 11.3904 1.0916 11.7389 0.880316C12.0887 0.668162 12.3932 0.56952 12.6389 0.569458L12.6388 0.319458ZM20.4027 20.5831C20.4027 14.0255 19.0439 8.97226 17.4025 5.55441C16.582 3.84594 15.6897 2.54342 14.8587 1.66586C14.4433 1.22714 14.041 0.892384 13.6686 0.666529C13.2975 0.441545 12.9475 0.319535 12.6389 0.319458L12.6388 0.569458C12.8846 0.56952 13.1891 0.668159 13.5389 0.880301C13.8874 1.09157 14.2725 1.41042 14.6772 1.83775C15.4863 2.6923 16.3651 3.97167 17.1772 5.66264C18.8008 9.04367 20.1527 14.0595 20.1527 20.5831H20.4027ZM15.4434 43.1943C15.6499 42.8097 20.4027 33.8286 20.4027 20.5831H20.1527C20.1527 33.7714 15.4194 42.7105 15.2231 43.076L15.4434 43.1943ZM15.2471 43.5589L15.4433 43.1944L15.2232 43.0759L15.027 43.4405L15.2471 43.5589ZM10.1406 43.6247H15.1371V43.3747H10.1406V43.6247ZM9.83437 43.1944L10.0306 43.5589L10.2507 43.4405L10.0545 43.0759L9.83437 43.1944ZM4.875 20.5831C4.875 33.8286 9.62787 42.8096 9.83431 43.1942L10.0546 43.076C9.85835 42.7104 5.125 33.7714 5.125 20.5831H4.875ZM11.8197 2.28819V2.28826H12.0697V2.28819H11.8197ZM11.9045 2.16981L11.9044 2.16986L11.9849 2.40653L11.9851 2.40648L11.9045 2.16981ZM12.0279 2.38149L12.0281 2.38137L11.8615 2.19492L11.8614 2.19504L12.0279 2.38149ZM12.0697 24.0557V2.28826H11.8197V24.0557H12.0697ZM13.3336 23.9307H11.9447V24.1807H13.3336V23.9307ZM13.2086 2.28819V24.0557H13.4586V2.28819H13.2086ZM19.0141 20.5833C19.0141 9.62199 15.2277 3.81131 13.4168 2.19494L13.2503 2.38145C14.995 3.93867 18.7641 9.6735 18.7641 20.5833H19.0141ZM18.0814 30.4935C18.6295 27.5789 19.0141 24.2413 19.0141 20.5833H18.7641C18.7641 24.2238 18.3813 27.5459 17.8357 30.4473L18.0814 30.4935ZM12.9227 26.3394C15.6003 27.869 17.0636 29.4141 17.8563 30.5423L18.0608 30.3986C17.2458 29.2385 15.7542 27.669 13.0468 26.1223L12.9227 26.3394ZM6.39802 17.1322C6.39202 17.3758 6.32188 22.567 12.9227 26.3393L13.0468 26.1223C6.5543 22.4119 6.64326 17.3285 6.64794 17.1383L6.39802 17.1322ZM6.52124 17.2603H6.52298V17.0103H6.52124V17.2603ZM11.8614 2.19505C10.2517 3.63343 7.08074 8.38553 6.39662 17.1255L6.64586 17.145C7.32633 8.45169 10.4779 3.76649 12.028 2.38147L11.8614 2.19505ZM6.28698 21.7011C6.30611 22.5619 6.34091 23.4078 6.40012 24.2332L6.64948 24.2153C6.59064 23.395 6.55599 22.5534 6.53692 21.6955L6.28698 21.7011ZM12.3574 27.329C9.24952 25.5525 7.50405 23.4639 6.52203 21.6391L6.30188 21.7575C7.30606 23.6235 9.08481 25.7464 12.2333 27.546L12.3574 27.329ZM17.6406 32.5189C17.6125 32.4264 16.8316 29.8865 12.3574 27.329L12.2333 27.546C16.6498 30.0705 17.391 32.5574 17.4013 32.5914L17.6406 32.5189ZM17.6407 32.5194L17.6405 32.5188L17.4013 32.5915L17.4015 32.5921L17.6407 32.5194ZM16.5536 36.6158C16.9278 35.4252 17.3019 34.0731 17.643 32.5836L17.3993 32.5278C17.0597 34.0107 16.6873 35.3564 16.3151 36.5408L16.5536 36.6158ZM12.9328 33.2899C14.7338 34.3629 15.7502 35.6207 16.3255 36.6398L16.5432 36.5169C15.9483 35.4631 14.9022 34.1722 13.0608 33.0751L12.9328 33.2899ZM6.4008 24.24C6.52473 25.2152 7.40259 29.997 12.9328 33.2899L13.0608 33.0751C7.62212 29.8367 6.76753 25.1427 6.6488 24.2085L6.4008 24.24ZM14.2936 41.9863H13.3335V42.2363H14.2936V41.9863ZM14.185 42.1732L14.1851 42.1735L14.402 42.0491L14.4018 42.0488L14.185 42.1732ZM15.6463 38.5267C15.0126 40.2756 14.4553 41.4903 14.1809 42.0565L14.4059 42.1655C14.6835 41.5927 15.2443 40.3699 15.8814 38.6119L15.6463 38.5267ZM12.2208 34.4823C14.8794 36.0651 15.5125 38.0444 15.6422 38.5978L15.8856 38.5408C15.7444 37.938 15.0789 35.8929 12.3487 34.2675L12.2208 34.4823ZM7.05518 29.617C8.12907 31.2603 9.7537 33.0119 12.2207 34.4822L12.3487 34.2675C9.91661 32.818 8.31902 31.094 7.26446 29.4803L7.05518 29.617ZM11.097 42.0567C10.4756 40.776 8.41769 36.1747 7.28304 29.5276L7.0366 29.5697C8.17627 36.2461 10.2435 40.8703 10.872 42.1659L11.097 42.0567ZM11.9446 41.9863H10.9845V42.2363H11.9446V41.9863ZM11.8196 37.25V42.1113H12.0696V37.25H11.8196ZM13.3335 37.125H11.9446V37.375H13.3335V37.125ZM13.4585 42.1113V37.25H13.2085V42.1113H13.4585Z" fill="black"/>
</g>
<defs>
<filter id="filter0_d" x="0.875" y="0.319458" width="23.5277" height="51.3052" filterUnits="userSpaceOnUse" color-interpolation-filters="sRGB">
<feFlood flood-opacity="0" result="BackgroundImageFix"/>
<feColorMatrix in="SourceAlpha" type="matrix" values="0 0 0 0 0 0 0 0 0 0 0 0 0 0 0 0 0 0 127 0"/>
<feOffset dy="4"/>
<feGaussianBlur stdDeviation="2"/>
<feColorMatrix type="matrix" values="0 0 0 0 0 0 0 0 0 0 0 0 0 0 0 0 0 0 0.25 0"/>
<feBlend mode="normal" in2="BackgroundImageFix" result="effect1_dropShadow"/>
<feBlend mode="normal" in="SourceGraphic" in2="effect1_dropShadow" result="shape"/>
</filter>
</defs>
</svg>

<svg width="25" height="52" fill="none" xmlns="http://www.w3.org/2000/svg"><g filter="url(#filter0_d)"><path fill-rule="evenodd" clip-rule="evenodd" d="M5 20.583C5 7.503 10.422.445 12.639.444c2.217.001 7.639 7.058 7.639 20.14 0 13.216-4.743 22.176-4.945 22.551l-.196.365h-4.996l-.197-.365C9.744 42.76 5 33.8 5 20.583zm6.945-18.295zm0 0v21.768h1.389V2.288c1.777 1.587 5.555 7.36 5.555 18.295 0 3.65-.384 6.98-.93 9.887-.804-1.144-2.282-2.701-4.974-4.24-6.547-3.74-6.467-8.878-6.462-9.095h-.002C7.204 8.42 10.365 3.7 11.945 2.288zm-5.42 21.936a51.331 51.331 0 01-.113-2.526c.993 1.846 2.755 3.951 5.883 5.74 4.446 2.54 5.207 5.054 5.226 5.117a52.613 52.613 0 01-1.087 4.023c-.585-1.036-1.616-2.31-3.437-3.396-5.485-3.265-6.35-8.003-6.472-8.958zm6.809 17.887h.96c.275-.57.834-1.788 1.47-3.542-.136-.578-.785-2.59-3.48-4.194-2.449-1.46-4.06-3.198-5.124-4.826 1.137 6.661 3.2 11.274 3.825 12.562h.96V37.25h1.389v4.861z" fill="#fff"/><path d="M12.639.444V.32v.125zm2.694 42.691l.11.06-.11-.06zm-.196.365v.125h.075l.035-.066-.11-.06zm-4.996 0l-.11.059.035.066h.075V43.5zm-.197-.365l-.11.06.11-.06zm2-40.847l-.04-.118-.084.029v.09h.125zm0 0l.084.093-.123-.211.04.118zm0 21.768h-.124v.125h.125v-.125zm1.39 0v.125h.125v-.125h-.125zm0-21.768l.083-.093-.208-.186v.28h.125zm4.625 28.182l-.103.072.17.243.055-.291-.122-.024zm-4.974-4.24l-.062.11.062-.11zm-6.462-9.095l.125.003.003-.128h-.128v.125zm-.002 0l-.124-.01-.01.135h.134v-.125zm-.109 4.563l.11-.059-.235.062.125-.003zm.113 2.526l-.125.01v.006l.125-.016zm5.77 3.213l-.062.109.062-.108zm5.226 5.118l-.12.036.12-.036zm0 0l.122.029.007-.033-.01-.032-.119.037zm-1.087 4.023l-.108.062.141.25.087-.274-.12-.038zm-3.437-3.396l.064-.107-.064.107zm1.297 8.93v.124h.215l-.107-.187-.108.062zm-.96 0h-.125v.124h.125v-.125zm.96-.001l-.113-.054-.029.059.033.057.108-.062zm1.47-3.542l.117.043.013-.035-.008-.036-.122.028zm-3.48-4.194l-.063.107.064-.107zM7.16 29.549l.104-.069-.227.09.123-.021zm3.825 12.562l-.113.055.034.07h.079v-.125zm.96 0v.125h.125v-.125h-.125zm0-4.861v-.125h-.125v.125h.125zm1.389 0h.125v-.125h-.125v.125zM12.639.32c-.309 0-.659.122-1.03.347-.372.225-.774.56-1.19.999-.83.878-1.723 2.18-2.544 3.889-1.641 3.417-3 8.47-3 15.028h.25c0-6.523 1.352-11.54 2.976-14.92.812-1.691 1.69-2.97 2.5-3.825.404-.428.79-.746 1.138-.958.35-.212.654-.31.9-.31V.32zm7.764 20.263c0-6.557-1.36-11.61-3-15.029-.821-1.708-1.713-3.01-2.544-3.888-.416-.439-.818-.774-1.19-1-.372-.224-.722-.346-1.03-.347v.25c.246 0 .55.1.9.311.348.212.734.53 1.138.958.81.854 1.688 2.134 2.5 3.825 1.624 3.38 2.976 8.396 2.976 14.92h.25zm-4.96 22.611c.207-.384 4.96-9.365 4.96-22.61h-.25c0 13.187-4.734 22.127-4.93 22.492l.22.118zm-.196.365l.196-.365-.22-.118-.196.364.22.119zm-5.106.066h4.996v-.25h-4.996v.25zm-.307-.43l.197.364.22-.118-.196-.365-.22.118zM4.875 20.582c0 13.246 4.753 22.227 4.96 22.611l.22-.118c-.197-.366-4.93-9.305-4.93-22.493h-.25zM11.82 2.288h.25-.25zm.085-.118l.08.237-.08-.237zm.123.211l-.167-.186.167.186zm.042 21.675V2.288h-.25v21.768h.25zm1.264-.125h-1.39v.25h1.39v-.25zm-.125-21.643v21.768h.25V2.288h-.25zm5.805 18.295c0-10.961-3.786-16.772-5.597-18.388l-.167.186c1.745 1.558 5.514 7.293 5.514 18.202h.25zm-.933 9.91c.549-2.914.933-6.252.933-9.91h-.25c0 3.64-.383 6.963-.928 9.864l.245.047zm-5.158-4.154c2.677 1.53 4.14 3.075 4.933 4.203l.205-.143c-.815-1.16-2.307-2.73-5.014-4.277l-.124.217zm-6.525-9.207c-.006.244-.076 5.435 6.525 9.207l.124-.217c-6.493-3.71-6.404-8.794-6.4-8.984l-.249-.006zm.123.128h.002v-.25h-.002v.25zm5.34-15.065c-1.61 1.438-4.78 6.19-5.464 14.93l.249.02c.68-8.693 3.832-13.379 5.382-14.764l-.167-.186zM6.287 21.701c.02.86.054 1.707.113 2.532l.25-.018a51.216 51.216 0 01-.113-2.52l-.25.006zm6.07 5.628c-3.107-1.777-4.853-3.865-5.835-5.69l-.22.119c1.004 1.866 2.783 3.988 5.931 5.788l.124-.217zm5.284 5.19c-.028-.093-.81-2.632-5.284-5.19l-.124.217c4.417 2.524 5.158 5.011 5.168 5.045l.24-.072zm0 0l-.24.073.24-.073zm-1.087 4.097c.374-1.19.748-2.543 1.089-4.032l-.244-.056a52.572 52.572 0 01-1.084 4.013l.239.075zm-3.621-3.326c1.8 1.073 2.817 2.33 3.393 3.35l.217-.123c-.595-1.054-1.64-2.345-3.482-3.442l-.128.215zM6.4 24.24c.124.975 1.002 5.757 6.532 9.05l.128-.215c-5.439-3.238-6.293-7.932-6.412-8.867l-.248.032zm7.893 17.746h-.96v.25h.96v-.25zm-.109.187l.217-.124-.217.124zm1.461-3.646a37.723 37.723 0 01-1.465 3.53l.225.108c.277-.572.838-1.795 1.475-3.553l-.235-.085zm-3.425-4.045c2.658 1.583 3.291 3.562 3.421 4.116l.244-.057c-.142-.603-.807-2.648-3.537-4.273l-.128.214zm-5.166-4.865c1.074 1.643 2.699 3.395 5.166 4.865l.128-.215c-2.432-1.449-4.03-3.173-5.085-4.787l-.209.137zm4.042 12.44c-.621-1.281-2.68-5.882-3.814-12.53l-.246.043c1.14 6.676 3.206 11.3 3.835 12.596l.225-.11zm.848-.07h-.96v.25h.96v-.25zm-.125-4.737v4.861h.25V37.25h-.25zm1.514-.125h-1.39v.25h1.39v-.25zm.125 4.986V37.25h-.25v4.861h.25z" fill="#000"/></g><defs><filter id="filter0_d" x=".875" y=".319" width="23.528" height="51.305" filterUnits="userSpaceOnUse" color-interpolation-filters="sRGB"><feFlood flood-opacity="0" result="BackgroundImageFix"/><feColorMatrix in="SourceAlpha" values="0 0 0 0 0 0 0 0 0 0 0 0 0 0 0 0 0 0 127 0"/><feOffset dy="4"/><feGaussianBlur stdDeviation="2"/><feColorMatrix values="0 0 0 0 0 0 0 0 0 0 0 0 0 0 0 0 0 0 0.25 0"/><feBlend in2="BackgroundImageFix" result="effect1_dropShadow"/><feBlend in="SourceGraphic" in2="effect1_dropShadow" result="shape"/></filter></defs></svg>
